X:124
T:Maid Of Mitchelstown (reel), The  
B:CRE1.151 (Gearrchaile Bhaile Mhisteala)
F:file ID: cre.1/124maid_mt
S:John Potts
N:When the Bothy Band recorded this in the late 1970's,
they played the B part as a minor (=F naturals). I've added that
version to the original CRE file.
M:C
L:1/8
Q:180
R:reel
K:D
D2AG EFGE|(3ABA GE =cAGE|D2AG EFGE|(3ABA GE EDD2|
D2AG EFGE|(3ABA GE =cAGE|D2AG EFGE|(3ABA GE EDD2||
DFAB =c2AG|Adde f2ed|=cAGE FEFG|AFGE EDD2|
DFAB =c2AG|Adde f2ed|=cAGE FEFG|AddB =cAGE||

%%%

